!!!COM: Music21
!!!OTL: Alalá
!!!OMV: pezas_alalas_alala-26_alala-partitura.musicxml
**kern
*I"Bagpipes
*I'Bag
*clefG^2
*k[]
*M3/4
=1
!LO:TX:a:t=Largo
*MM48
!LO:TX:a:t=[quarter]=48
2r
4g
=
4cc
4cc
4cc
=
2cc
4ee
=
4gg
2gg;
=
4dd
4dd
16ddLL
16cc
16b
16ccJJ
=
4dd
16ddLL
16cc
16b
16ccJJ
[4dd
=
2dd;]
4dd
=
4gg
4gg
4gg
=
2gg
4ff
!!linebreak:original
=
4ee
8ffL
8ee-XJ
[4dd
!!linebreak:original
=
4dd]
4ee-X
4dd
=
2.cc;
=
8ff
8r
[8aaL
8aaJ]
4gg
=
4ff#X
8gg
8aaL
8bb
8aaJ
=
8gg
8r
[8aaL
8aaJ]
4gg
=
4ff#X
8gg
8aaL
8bb
8aaJ
=
8ggL
8ggJ
8bb
4.bb
=
2ccc
8dddL
8cccJ
!!linebreak:original
=
[4.bb
16bbLL]
16cc
16ee
16gg
16ccc
16eeJJ
=
8ddL
8ggJ
8gg
16r
16ccLL
16ee
16gg
16ccc
16eeJJ
=
8dd
4bb;
8r
4r
==
*-
